X: 1951
T: Yaktı Cihânı Ateşin
C: İsmet Ağa
O: Turkey
F: http://compmusic.upf.edu/node/140
N: bestenigar--sarki--duyek--yakti_cihani--ismet_aga
N: makam= bestenigar
N: form= sarki
N: usul= duyek = 8/4
M: 8/4
L: 1/16
K: C _2/4B _3/4d  
Q: 1/4=144
%%MIDI tuningsystem comma53
z2 cd c2 B2 cd cB A2 B2  | cB ce d2 c2 cB BA A4  | 
w:  Yak *  *  *  tı  *  *  *  *  ci  |  hâ *  *  *  *  *  nı   | 
z2 c4 d2 e3c d2 B2  | c6 G2 A2 B2 c4  | \
w:  â *  *  *  *  te  |  şin   SAZ  | 
z2 cd e2 f2 g2 fe _7/8a2 gf  | 
w:  Bir  *  *  *  ta *  *  *  ne  | 
g2 fe f2 ed cd/e/ dc c3/2B/ A2  | \
w:  sin   | 
z2 AB c2 BA A3G ^F2 _1/4B2  | 
w:  yok *  *  *  *  tur  *  *  e  | 
A2 G4 (3AG^F F4 z4  | z2 ^f4 a2 g2 fe =d4  | \
w:  şin    |  Ol *  dum  *  *  se  | 
^f2 g4 =fe ed dc c4  | 
w:  nin   | 
z2 c4 d2 e3c d2 B2  | c6 A2 G2 B2 c4  | \
w:  has *  ret *  *  ke  |  şin   SAZ  | 
z2 cd e2 f2 g2 fe _7/8a2 gf  | 
w:  Bir  *  *  *  ta *  *  *  ne  | 
g2 fe f2 ed cd/e/ dc c3/2B/ A2  | \
w:  sin   | 
z2 AB c2 BA A3G ^F2 _1/4B2  | 
w:  yok *  *  *  *  tur  *  *  e  | 
A2 G4 (3AG^F F4 z4  | z2 cd c2 B2 cd cB A2 B2  | \
w:  şin    |  Yak *  *  *  tı  *  *  *  *  ci  | 
cB ce d2 c2 cB BA A4  | 
w:  hâ *  *  *  *  *  nı   | 
z2 c4 d2 e3c d2 B2  | c6 G2 A2 B2 c4  | \
w:  â *  *  *  *  te  |  şin   SAZ  | 
z2 cd e2 f2 g2 fe _7/8a2 gf  | 
w:  Bir  *  *  *  ta *  *  *  ne  | 
g2 fe f2 ed cd/e/ dc c3/2B/ A2  | \
w:  sin   | 
z2 AB c2 BA A3G ^F2 _1/4B2  | 
w:  yok *  *  *  *  tur  *  *  e  | 
A2 G4 (3AG^F F4 z4  | z2 ^f4 a2 g2 fe =d4  | \
w:  şin    |  Ol *  dum  *  *  se  | 
^f2 g4 =fe ed dc c4  | 
w:  nin   | 
z2 c4 d2 e3c d2 B2  | c6 A2 G2 B2 c4  | \
w:  has *  ret *  *  ke  |  şin   SAZ  | 
z2 cd e2 f2 g2 fe _7/8a2 gf  | 
w:  Bir  *  *  *  ta *  *  *  ne  | 
g2 fe f2 ed cd/e/ dc c3/2B/ A2  | \
w:  sin   | 
z2 AB c2 BA A3G ^F2 _1/4B2  | 
w:  yok *  *  *  *  tur  *  *  e  | 
A2 G4 (3AG^F F4 z4  | |


